dist/images/ignore/icon-markdown.svg

<svg width="21" height="11" viewBox="0 0 21 11" xmlns="http://www.w3.org/2000/svg" xmlns:sketch="http://www.bohemiancoding.com/sketch/ns"><title>icon-markdown</title><desc>Created with Sketch.</desc><path d="M18.708.567h-16.372c-.762 0-1.38.443-1.38.99v7.813c0 .547.618.99 1.38.99h16.372c.762 0 1.38-.443 1.38-.99v-7.813c0-.546-.618-.99-1.38-.99zm-6.99 7.835h-2.392v-2.938l-1.796 1.65-1.795-1.65v2.938h-2.395v-5.876h2.395l1.795 2.08 1.795-2.08h2.394v5.876h-.001zm3.574 0l-2.974-2.938h1.794v-2.938h2.393v2.938h1.795l-3.01 2.938h.002z" sketch:type="MSShapeGroup" fill="#8596A5"/></svg>

<svg width="21" height="11" viewBox="0 0 21 11" xmlns="http://www.w3.org/2000/svg"><title>icon-markdown</title><path d="M18.708.567H2.336c-.762 0-1.38.443-1.38.99V9.37c0 .547.618.99 1.38.99h16.372c.762 0 1.38-.443 1.38-.99V1.557c0-.546-.618-.99-1.38-.99zm-6.99 7.835H9.326V5.464L7.53 7.114l-1.795-1.65v2.938H3.34V2.526h2.395l1.795 2.08 1.795-2.08h2.394v5.876h-.002zm3.574 0l-2.974-2.938h1.794V2.526h2.393v2.938H18.3l-3.01 2.938h.002z" fill="#8596A5"/></svg>
